Yaru++/actions/16/format-segment-curve.svg

<svg viewBox="0 0 24 24" xmlns="http://www.w3.org/2000/svg"><path d="m17 4v1 1 1h3v-3zm1 1h1v1h-1zm-14 12v3h3v-3h-1-1zm1 1h1v1h-1z" fill="#808080"/><path d="m17 5a12 12 0 0 0 -12 12h1a11 11 0 0 1 11-11z" fill="#1d99f3"/></svg>

<svg xmlns="http://www.w3.org/2000/svg" viewBox="0 0 24 24">
 <defs>
  <style id="current-color-scheme" type="text/css">
   .ColorScheme-Text { color:#808080; } .ColorScheme-Highlight { color:#1d99f3; }
  </style>
 </defs>
 <path style="fill:currentColor" class="ColorScheme-Text" d="M 17 4 L 17 5 L 17 6 L 17 7 L 20 7 L 20 4 L 17 4 z M 18 5 L 19 5 L 19 6 L 18 6 L 18 5 z M 4 17 L 4 20 L 7 20 L 7 17 L 6 17 L 5 17 L 4 17 z M 5 18 L 6 18 L 6 19 L 5 19 L 5 18 z"/>
 <path style="fill:currentColor" class="ColorScheme-Highlight" d="M 17 5 A 12 12 0 0 0 5 17 L 6 17 A 11 11 0 0 1 17 6 L 17 5 z"/>
</svg>
